X: 334
T: Micino Cergasko Kolo
O: Serbia
S: recording: Nama Orchestra, Balkan Folk Dances
M: 2/4
L: 1/8
Q: 1/4=300
K: Dm
|:A4  |A4   |B2G2 |A4   |GAA2 |B2G2 |A4   |A4   :|
|:A4  |A4   |B2G2 |A4   |GAA2 |B2G2 |A4   |A4   :|
|:eggf|feed |edd^c|ed^c2|A4   |A4   |B2G2 |A4   :|
|:eggf|feed |edd^c|ed^c2|A4   |A4   |B2G2 |A4   :|
|:A2a2|a^ga2|=b2g2|g4   |a2^f2|^fef2|^f2e2|d4   |
  d2f2|f2e2 |d2e2 |e2d2 |^c2d2|B2^c2|B2G2 |A4   :|
|:G2g2|e2G2 |e2f2 |ede2 |e2d2 |d2d2 |d2f2 |ede2 :|
|:e2d2|d2d2 |d2f2 |ede2 |e2d2 |d2d2 |d2f2 |ede2 :|



